images/logo.svg

<svg width="100" height="46" viewBox="0 0 100 46" fill="none" xmlns="http://www.w3.org/2000/svg">
<path d="M17.3474 46C15.8771 46 14.7207 45.7109 13.8782 45.1327C13.0522 44.5545 12.474 43.7698 12.1436 42.7786C11.8132 41.7708 11.6479 40.6144 11.6479 39.3093V32.1478C11.6479 30.7767 11.8132 29.5872 12.1436 28.5795C12.474 27.5717 13.0522 26.7953 13.8782 26.2501C14.7207 25.705 15.8771 25.4324 17.3474 25.4324C18.7351 25.4324 19.8172 25.6719 20.5936 26.151C21.3866 26.6136 21.9483 27.2826 22.2787 28.1582C22.6091 29.0338 22.7743 30.0498 22.7743 31.2062V32.8912H19.2555V31.1566C19.2555 30.5949 19.2225 30.0828 19.1564 29.6202C19.1068 29.1577 18.9499 28.7942 18.6855 28.5299C18.4377 28.2491 18 28.1086 17.3722 28.1086C16.7444 28.1086 16.2819 28.2573 15.9845 28.5547C15.7037 28.8355 15.5219 29.2238 15.4393 29.7194C15.3567 30.1984 15.3154 30.7436 15.3154 31.3549V40.0775C15.3154 40.8044 15.3733 41.4074 15.4889 41.8865C15.6045 42.349 15.811 42.7042 16.1084 42.952C16.4223 43.1833 16.8435 43.299 17.3722 43.299C17.9834 43.299 18.413 43.1585 18.6608 42.8777C18.9251 42.5803 19.0903 42.1921 19.1564 41.713C19.2225 41.2339 19.2555 40.697 19.2555 40.1023V38.2933H22.7743V39.9041C22.7743 41.0935 22.6174 42.1508 22.3035 43.0759C21.9896 43.9845 21.4362 44.7032 20.6432 45.2318C19.8667 45.7439 18.7681 46 17.3474 46Z" fill="white"/>
<path d="M24.5842 45.7274V25.6554H28.2517V43.1998H33.1086V45.7274H24.5842Z" fill="white"/>
<path d="M34.3699 45.7274V25.6554H37.9878V45.7274H34.3699Z" fill="white"/>
<path d="M40.3021 45.7274L40.649 25.6554H44.4404L47.2901 39.5571L50.2638 25.6554H53.9312L54.3029 45.7274H51.5771L51.2798 31.7761L48.43 45.7274H46.2246L43.3253 31.7266L43.0527 45.7274H40.3021Z" fill="white"/>
<path d="M56.5237 45.7274V25.6554H61.455C62.347 25.6554 63.1483 25.738 63.8587 25.9032C64.5855 26.0684 65.205 26.3492 65.7172 26.7457C66.2458 27.1257 66.6506 27.6461 66.9314 28.3069C67.2122 28.9677 67.3527 29.802 67.3527 30.8097C67.3527 31.6192 67.237 32.313 67.0057 32.8912C66.791 33.4694 66.4688 33.932 66.0393 34.2789C65.6098 34.6093 65.0729 34.8324 64.4286 34.948C65.2216 35.0802 65.8741 35.361 66.3862 35.7905C66.9149 36.2035 67.3031 36.7487 67.5509 37.426C67.8152 38.1034 67.9474 38.9211 67.9474 39.8793C67.9474 40.8374 67.8235 41.6882 67.5757 42.4316C67.3444 43.1585 66.9892 43.7698 66.5101 44.2654C66.0476 44.7445 65.4611 45.1079 64.7507 45.3557C64.0569 45.6035 63.2391 45.7274 62.2975 45.7274H56.5237ZM60.1912 43.1503H61.5789C62.6857 43.1503 63.4374 42.886 63.8339 42.3573C64.2304 41.8121 64.4286 40.9779 64.4286 39.8545C64.4286 39.045 64.3295 38.3925 64.1312 37.8969C63.9495 37.3847 63.6356 37.0048 63.1896 36.757C62.7601 36.5092 62.1818 36.3853 61.455 36.3853H60.1912V43.1503ZM60.1912 33.8577H61.4302C62.1571 33.8577 62.7188 33.7503 63.1152 33.5355C63.5117 33.3208 63.7843 32.9904 63.933 32.5443C64.0982 32.0983 64.1808 31.5366 64.1808 30.8593C64.1808 30.1489 64.0569 29.6037 63.8091 29.2238C63.5778 28.8273 63.2226 28.5629 62.7435 28.4308C62.2645 28.2821 61.6532 28.2078 60.9098 28.2078H60.1912V33.8577Z" fill="white"/>
<path d="M69.6731 45.7274V25.6554H73.291V45.7274H69.6731Z" fill="white"/>
<path d="M75.6548 45.7274V25.6554H78.2072L83.0889 37.1039V25.6554H86.1121V45.7274H83.6836L78.7772 33.7338V45.7274H75.6548Z" fill="white"/>
<path d="M93.4451 46C92.1235 46 91.0745 45.7192 90.298 45.1575C89.5216 44.5958 88.9599 43.8028 88.613 42.7786C88.2826 41.7378 88.1174 40.5153 88.1174 39.1111V32.3709C88.1174 30.9336 88.2826 29.6946 88.613 28.6538C88.9434 27.613 89.5216 26.8201 90.3476 26.2749C91.1901 25.7132 92.3465 25.4324 93.8168 25.4324C95.188 25.4324 96.2784 25.6637 97.0878 26.1262C97.8973 26.5888 98.4755 27.2579 98.8225 28.1334C99.1859 28.9925 99.3676 30.0415 99.3676 31.2805V32.3213H95.8736V31.1814C95.8736 30.5371 95.8241 29.9837 95.7249 29.5211C95.6423 29.0586 95.4606 28.7116 95.1798 28.4803C94.9154 28.2325 94.4776 28.1086 93.8664 28.1086C93.2221 28.1086 92.7513 28.2656 92.4539 28.5795C92.1731 28.8934 91.9914 29.3064 91.9088 29.8185C91.8427 30.3306 91.8096 30.8923 91.8096 31.5035V39.9041C91.8096 40.5979 91.8675 41.2009 91.9831 41.713C92.0987 42.2251 92.3135 42.6216 92.6274 42.9025C92.9413 43.1668 93.3873 43.299 93.9655 43.299C94.5602 43.299 95.0146 43.1503 95.3284 42.8529C95.6423 42.5555 95.8571 42.1425 95.9727 41.6139C96.1049 41.0853 96.171 40.4575 96.171 39.7306V37.8473H94.0151V35.5427H99.4667V45.7274H97.1126L96.84 43.745C96.5757 44.4058 96.171 44.951 95.6258 45.3805C95.0972 45.7935 94.3703 46 93.4451 46Z" fill="white"/>
<path d="M11.9453 20.2951V0.223023H20.3706V2.80017H15.6128V8.57398H19.3546V11.1264H15.6128V17.7675H20.4202V20.2951H11.9453Z" fill="white"/>
<path d="M21.8013 20.2951V0.223023H25.4688V17.7675H30.3257V20.2951H21.8013Z" fill="white"/>
<path d="M31.4879 20.2951V0.223023H36.4191C37.3112 0.223023 38.1125 0.305624 38.8228 0.470827C39.5497 0.636028 40.1692 0.916871 40.6813 1.31336C41.21 1.69332 41.6147 2.21371 41.8956 2.87451C42.1764 3.53532 42.3168 4.36959 42.3168 5.37732C42.3168 6.18681 42.2012 6.88066 41.9699 7.45887C41.7552 8.03707 41.433 8.49964 41.0035 8.84656C40.574 9.17697 40.0371 9.39999 39.3928 9.51563C40.1857 9.64779 40.8383 9.92863 41.3504 10.3582C41.8791 10.7712 42.2673 11.3163 42.5151 11.9937C42.7794 12.671 42.9116 13.4887 42.9116 14.4469C42.9116 15.4051 42.7877 16.2559 42.5399 16.9993C42.3086 17.7262 41.9534 18.3374 41.4743 18.833C41.0118 19.3121 40.4253 19.6755 39.7149 19.9233C39.0211 20.1712 38.2033 20.2951 37.2617 20.2951H31.4879ZM35.1553 17.7179H36.543C37.6499 17.7179 38.4016 17.4536 38.798 16.9249C39.1945 16.3798 39.3928 15.5455 39.3928 14.4221C39.3928 13.6126 39.2937 12.9601 39.0954 12.4645C38.9137 11.9524 38.5998 11.5724 38.1538 11.3246C37.7242 11.0768 37.146 10.9529 36.4191 10.9529H35.1553V17.7179ZM35.1553 8.4253H36.3944C37.1212 8.4253 37.6829 8.31792 38.0794 8.10315C38.4759 7.88839 38.7485 7.55799 38.8972 7.11194C39.0624 6.6659 39.145 6.10421 39.145 5.42688C39.145 4.71652 39.0211 4.17135 38.7733 3.79138C38.542 3.3949 38.1868 3.13058 37.7077 2.99842C37.2286 2.84973 36.6174 2.77539 35.874 2.77539H35.1553V8.4253Z" fill="white"/>
<path d="M44.5382 20.2951V0.223023H49.3455C50.7002 0.223023 51.8401 0.388225 52.7652 0.71863C53.7069 1.03251 54.4172 1.57768 54.8963 2.35413C55.3919 3.13058 55.6397 4.18787 55.6397 5.526C55.6397 6.33549 55.5654 7.06238 55.4167 7.70667C55.268 8.35096 55.012 8.90438 54.6485 9.36695C54.3016 9.81299 53.8143 10.1599 53.1865 10.4077L55.9867 20.2951H52.3192L49.8907 11.1016H48.2057V20.2951H44.5382ZM48.2057 8.797H49.3455C50.0559 8.797 50.6176 8.69788 51.0306 8.49964C51.4601 8.28488 51.7658 7.95447 51.9475 7.50843C52.1292 7.04586 52.2201 6.4594 52.2201 5.74903C52.2201 4.7413 52.0301 3.98963 51.6501 3.49402C51.2867 2.98189 50.5846 2.72583 49.5438 2.72583H48.2057V8.797Z" fill="white"/>
<path d="M63.1139 20.5676C61.6271 20.5676 60.4707 20.2951 59.6447 19.7499C58.8186 19.2047 58.2487 18.4283 57.9348 17.4205C57.6209 16.4128 57.464 15.2068 57.464 13.8026V0.223023H61.0324V14.2239C61.0324 14.8517 61.0737 15.4464 61.1563 16.0081C61.2389 16.5532 61.4288 16.9993 61.7262 17.3462C62.0401 17.6766 62.5026 17.8418 63.1139 17.8418C63.7582 17.8418 64.2208 17.6766 64.5016 17.3462C64.799 16.9993 64.9889 16.5532 65.0715 16.0081C65.1707 15.4464 65.2202 14.8517 65.2202 14.2239V0.223023H68.7638V13.8026C68.7638 15.2068 68.6069 16.4128 68.293 17.4205C67.9791 18.4283 67.4091 19.2047 66.5831 19.7499C65.7736 20.2951 64.6172 20.5676 63.1139 20.5676Z" fill="white"/>
<path d="M75.9602 20.5676C74.7542 20.5676 73.7464 20.3364 72.937 19.8738C72.1275 19.3947 71.5162 18.7009 71.1032 17.7922C70.6902 16.8836 70.4589 15.7685 70.4094 14.4469L73.5565 13.8274C73.5895 14.6038 73.6804 15.2894 73.8291 15.8842C73.9943 16.4789 74.2338 16.9415 74.5477 17.2719C74.8781 17.5857 75.3076 17.7427 75.8363 17.7427C76.431 17.7427 76.8522 17.5692 77.1001 17.2223C77.3479 16.8589 77.4718 16.4045 77.4718 15.8594C77.4718 14.9838 77.2735 14.2652 76.877 13.7035C76.4805 13.1418 75.9519 12.5801 75.2911 12.0184L72.7635 9.78821C72.0531 9.17697 71.4832 8.49964 71.0537 7.75623C70.6407 6.9963 70.4342 6.06291 70.4342 4.95606C70.4342 3.37012 70.8967 2.14763 71.8218 1.28858C72.747 0.429525 74.0108 0 75.6132 0C76.5549 0 77.3396 0.148682 77.9674 0.446045C78.5951 0.726889 79.0907 1.12337 79.4542 1.6355C79.8341 2.14763 80.115 2.73409 80.2967 3.3949C80.4784 4.03919 80.5941 4.72478 80.6436 5.45166L77.5213 5.99683C77.4883 5.36906 77.4139 4.80738 77.2983 4.31177C77.1992 3.81616 77.0092 3.42794 76.7283 3.1471C76.464 2.86625 76.0675 2.72583 75.5389 2.72583C74.9937 2.72583 74.5725 2.90755 74.2751 3.271C73.9943 3.61792 73.8538 4.05571 73.8538 4.58435C73.8538 5.26168 73.9943 5.82337 74.2751 6.26941C74.5559 6.69894 74.9607 7.14498 75.4893 7.60755L77.9921 9.81299C78.8181 10.5068 79.5203 11.3246 80.0985 12.2662C80.6932 13.1914 80.9906 14.3147 80.9906 15.6364C80.9906 16.5945 80.7758 17.4453 80.3463 18.1887C79.9333 18.9321 79.3468 19.5186 78.5869 19.9481C77.8435 20.3611 76.9679 20.5676 75.9602 20.5676Z" fill="white"/>
<path d="M0 0.0795898H3.91268V45.7275H0V0.0795898Z" fill="#FF0002"/>
</svg>

<svg xmlns="http://www.w3.org/2000/svg" width="100" height="46" fill="none"><path fill="#fff" d="M17.347 46q-2.205 0-3.469-.867-1.239-.868-1.734-2.354-.495-1.512-.496-3.47v-7.161q0-2.056.496-3.569.495-1.511 1.734-2.329 1.265-.818 3.47-.818 2.081 0 3.246.719a3.8 3.8 0 0 1 1.685 2.007q.495 1.314.495 3.048v1.685h-3.518v-1.734q0-.843-.1-1.537-.075-.693-.47-1.09-.372-.42-1.314-.421-.942 0-1.387.446-.421.42-.546 1.164a9.7 9.7 0 0 0-.124 1.636v8.723q0 1.09.174 1.808.173.694.62 1.066.47.347 1.263.347.917 0 1.289-.421.397-.447.495-1.165.1-.72.1-1.61v-1.81h3.518v1.611q0 1.785-.47 3.172a4.15 4.15 0 0 1-1.66 2.156Q19.477 46 17.346 46M24.584 45.727V25.655h3.668V43.2h4.857v2.527zM34.37 45.727V25.655h3.618v20.072zM40.302 45.727l.347-20.072h3.791l2.85 13.902 2.974-13.902h3.667l.372 20.072h-2.726l-.297-13.95-2.85 13.95h-2.205l-2.9-14-.272 14zM56.524 45.727V25.655h4.931q1.338 0 2.404.248 1.09.248 1.858.843.794.57 1.214 1.56.422.992.422 2.504 0 1.214-.347 2.081-.322.867-.967 1.388-.645.495-1.61.669 1.19.198 1.957.843.793.62 1.165 1.635.396 1.016.396 2.453 0 1.438-.371 2.553-.348 1.09-1.066 1.833-.693.72-1.76 1.09-1.039.372-2.453.372zm3.667-2.577h1.388q1.66 0 2.255-.793.595-.818.595-2.502 0-1.215-.298-1.958-.272-.768-.941-1.14-.645-.372-1.735-.372h-1.264zm0-9.292h1.24q1.09 0 1.684-.322a1.7 1.7 0 0 0 .818-.992q.248-.669.248-1.685 0-1.065-.372-1.635-.346-.595-1.065-.793-.719-.223-1.834-.223h-.719zM69.673 45.727V25.655h3.618v20.072zM75.655 45.727V25.655h2.552l4.882 11.449V25.655h3.023v20.072h-2.428l-4.907-11.993v11.993zM93.445 46q-1.982 0-3.147-.843-1.164-.842-1.685-2.378-.496-1.562-.496-3.668v-6.74q0-2.155.496-3.717.496-1.561 1.735-2.38 1.264-.841 3.469-.842 2.057 0 3.27.694a3.9 3.9 0 0 1 1.736 2.007q.545 1.29.545 3.148v1.04h-3.494v-1.14q0-.966-.15-1.66-.123-.694-.544-1.04-.397-.372-1.314-.372-.966 0-1.412.47-.421.47-.545 1.24-.1.767-.1 1.685v8.4q0 1.041.174 1.809t.644 1.19q.47.396 1.339.396.892 0 1.362-.446.472-.445.645-1.24.198-.792.198-1.882v-1.884h-2.156v-2.304h5.452v10.184h-2.354l-.273-1.982a3.9 3.9 0 0 1-1.214 1.636q-.794.62-2.18.619M11.945 20.295V.223h8.426V2.8h-4.758v5.774h3.742v2.552h-3.742v6.641h4.807v2.528zM21.801 20.295V.223h3.668v17.545h4.857v2.527zM31.488 20.295V.223h4.931q1.339 0 2.404.248 1.09.248 1.858.842.794.57 1.215 1.562.42.99.42 2.502 0 1.215-.346 2.082-.322.866-.966 1.388-.645.495-1.611.669 1.19.198 1.957.842.794.62 1.165 1.636.396 1.016.397 2.453 0 1.437-.372 2.552-.347 1.09-1.066 1.834-.693.72-1.76 1.09-1.04.372-2.452.372zm3.667-2.577h1.388q1.66 0 2.255-.793.594-.818.595-2.503 0-1.214-.298-1.958-.272-.768-.941-1.14-.645-.37-1.735-.371h-1.264zm0-9.293h1.24q1.09 0 1.684-.322a1.7 1.7 0 0 0 .818-.991q.248-.67.248-1.685 0-1.066-.372-1.636-.346-.594-1.065-.793-.719-.223-1.834-.223h-.719zM44.538 20.295V.223h4.808q2.031 0 3.42.496 1.41.471 2.13 1.635.744 1.165.744 3.172 0 1.215-.223 2.18-.223.967-.769 1.66-.52.67-1.462 1.042l2.8 9.887H52.32l-2.428-9.193h-1.685v9.193zm3.668-11.498h1.14q1.065 0 1.685-.297.645-.323.916-.992.273-.694.273-1.759 0-1.512-.57-2.255-.545-.768-2.106-.768h-1.338zM63.114 20.568q-2.23 0-3.47-.818-1.238-.818-1.71-2.33-.47-1.51-.47-3.617V.223h3.568v14q0 .943.124 1.785.124.818.57 1.338.471.495 1.388.496.966 0 1.388-.496.445-.52.57-1.338.148-.843.148-1.784V.223h3.544v13.58q0 2.106-.471 3.617t-1.71 2.33q-1.214.818-3.47.818M75.96 20.568q-1.81 0-3.023-.694-1.214-.72-1.834-2.082-.62-1.363-.694-3.345l3.147-.62q.05 1.165.273 2.057.248.893.719 1.388.496.47 1.288.47.892 0 1.264-.52.372-.545.372-1.363 0-1.313-.595-2.155-.594-.843-1.586-1.686l-2.528-2.23a7.9 7.9 0 0 1-1.71-2.032q-.619-1.14-.619-2.8 0-2.379 1.388-3.667Q73.21-.001 75.613 0q1.413 0 2.354.446.942.42 1.487 1.19.57.768.843 1.759.272.966.347 2.057l-3.123.545a9.7 9.7 0 0 0-.223-1.685q-.148-.744-.57-1.165-.395-.42-1.19-.421-.816 0-1.263.545-.42.52-.421 1.313 0 1.017.421 1.685.421.645 1.214 1.339l2.503 2.205a10 10 0 0 1 2.106 2.453q.893 1.388.893 3.37 0 1.439-.645 2.553-.62 1.115-1.76 1.76-1.114.619-2.626.619"/><path fill="#FF0002" d="M0 .08h3.913v45.648H0z"/></svg>
